X: 1
T: Kuuliaiset Kottilassa
R: polka, shottish
O: Trad Finland
Z: John Chambers <jc@trillian.mit.edu>
M: C|
L: 1/8
K: D
[| "D"D2FF F2A2 | A2d2 d4 | ffdd e2d2 | "G"c2B2 B4 \
| "Em"BGEG BGEG | B2B2 B2BB | "A7"c2AA cBAG | "D"F2D2 D4 |
| "D"D2FF F2A2 | A2d2 d2ee | f2dd e2d2 | "G"c2B2 B4 \
|: "Em(G)"B2gg ffee | "D"ddff eedd | "A7"c2AA B2cc |1 "D"d2"A"e2 "D"f4 :|2 "D"d2d2 d4 :|
